X: 11121
M: 6/8
L: 1/8
K: D
V: 1 staves=4
(d2f) (e2f) | (d2e) (d2c) | (B2A) (B2c) | (d3 A2) A |\
(d2f) (e2f) | (d2e) (d2c) | (B2A) (B2c) | d3- d2 |
(d2f) (e2f) | (d2e) (d2c) | (B2A) (B2c) | d3- d2 |]
V: 2
(F2A) (E2A) | (F2G) (F2A) | (G2F) (G2E) | F3- F2 z |\
(F2A) (G2A) | (F2G) (F2A) | (G2F) .G2G  | F3- F2 |
z |\
(F2A) (G2A) | (F2G) (F2A) | (G2F) G2-G | F3- F2 |]
V: 3
z |\
z |\
d2d d2d | d2e A,2A, | A,2A, A,2A, | A,3- A,2 z |\
V: 6 clef=bass middle=d
z |\
d6- | d6- | d6- | d3- d2 z |\
d6- | d6- | d6- | d3- d2  |
z |\
d3 d3 | d3 d3 | d3 c2d | a3- a2 z |\
d3 d3 | d3 d3 | d3 d3  | d3- d2 |]


